X:1
T:Poppy's Reel
C:Kathy Talvitie
M:C|
K:Am
|:"Am" A2AB c2 AB | cBcd c2 A2 | "E7" ^G2 GA B2 E2 | "Dm" FEFA "E7" ^GABe|
"Am" A2AB c2 AB | cBcd "E7" e4 | "Am" ea2 e "Dm" fede |1 "E7" cdcB "Am" A2 E2:|2 "E7" edcB "Am"A4||
"Am"ea2e "Dm"fede-|"Am"e a2 e "Dm"fede-|"E7"e e2 e fede|f e2 ^f- fe ^g2|
"Am"ea2e "Dm"fede-|"Am"e a2 e "Dm"fede-|"E7"e e2 e edcB|1"E7"[e8B8]:|2"E7"e2d2c2B2||"Am"A8|]
W:  Kathy Talvitie. All rights reserved. Used by permission.
